X: 31583
T: KITTY OF COLERAINE.
C:
%R: jig
B: Elias Howe "The Musician's Companion" Part 3 1844 p.158 #3
S: http://imslp.org/wiki/The_Musician's_Companion_(Howe,_Elias)
Z: 2015 John Chambers <jc:trillian.mit.edu>
M: 6/8
L: 1/8
K: D
% - - - - - - - - - - - - - - - - - - - - - - - - -
A/G/ |\
FAd dfa | eg/f/e/d/ ceA |\
dfa dgb | ABc d2 :|\
f/g/ |\
afd ecA | ag/f/e/d/ ecA |\
agf e2d/c/ | B>ed c"^D.C."A |]
% - - - - - - - - - - - - - - - - - - - - - - - - -
